src/components/00-materials/images-raw/Note Pen.svg

<svg width="96" height="96" viewBox="0 0 96 96" fill="none" xmlns="http://www.w3.org/2000/svg">
<path d="M61.36 36.79V21.2C61.36 20.9111 61.3031 20.625 61.1925 20.3581C61.082 20.0912 60.9199 19.8487 60.7156 19.6444C60.5114 19.4401 60.2688 19.278 60.0019 19.1675C59.735 19.0569 59.4489 19 59.16 19H14.06C13.7707 18.9987 13.4841 19.0547 13.2165 19.1648C12.949 19.2749 12.706 19.4369 12.5014 19.6414C12.2969 19.846 12.1349 20.089 12.0248 20.3566C11.9147 20.6241 11.8587 20.9107 11.86 21.2V82.8C11.8587 83.0893 11.9147 83.376 12.0248 83.6435C12.1349 83.911 12.2969 84.1541 12.5014 84.3586C12.706 84.5632 12.949 84.7252 13.2165 84.8353C13.4841 84.9453 13.7707 85.0013 14.06 85H59.16C59.4489 85 59.735 84.9431 60.0019 84.8326C60.2688 84.722 60.5114 84.5599 60.7156 84.3557C60.9199 84.1514 61.082 83.9088 61.1925 83.6419C61.3031 83.375 61.36 83.0889 61.36 82.8V55.3M42.97 47.19H19.05H42.97ZM50.67 37.57H19.05H50.67ZM42.97 56.81H19.05H42.97ZM47.64 66.43H19.05H47.64Z" stroke="#00008F" stroke-width="2" stroke-linecap="round" stroke-linejoin="round"/>
<path d="M79.57 18.4399L74.37 28.9999L67 25.3199L72.56 13.9299C73.82 11.5199 76.44 10.3599 78.47 11.3599C80.5 12.3599 81.17 15.1599 79.91 17.5599L79.55 18.4399L84.12 20.5799L77.92 33.1399M64.7 29.9999L72.05 33.6299L60.42 57.1799L60.31 57.4099L53 62.9999L52.92 53.8899C52.98 53.7799 52.92 53.6899 53.04 53.6599L64.7 29.9999Z" stroke="#00008F" stroke-width="2" stroke-linecap="round" stroke-linejoin="round"/>
</svg>

<svg width="96" height="96" viewBox="0 0 96 96" fill="none" xmlns="http://www.w3.org/2000/svg"><path d="M61.36 36.79V21.2a2.2 2.2 0 00-2.2-2.2h-45.1a2.19 2.19 0 00-2.2 2.2v61.6a2.19 2.19 0 002.2 2.2h45.1a2.201 2.201 0 002.2-2.2V55.3m-18.39-8.11H19.05h23.92zm7.7-9.62H19.05h31.62zm-7.7 19.24H19.05h23.92zm4.67 9.62H19.05h28.59z" stroke="#00008F" stroke-width="2" stroke-linecap="round" stroke-linejoin="round"/><path d="M79.57 18.44L74.37 29 67 25.32l5.56-11.39c1.26-2.41 3.88-3.57 5.91-2.57 2.03 1 2.7 3.8 1.44 6.2l-.36.88 4.57 2.14-6.2 12.56M64.7 30l7.35 3.63-11.63 23.55-.11.23L53 63l-.08-9.11c.06-.11 0-.2.12-.23L64.7 30z" stroke="#00008F" stroke-width="2" stroke-linecap="round" stroke-linejoin="round"/></svg>
